code-braces.svg

<svg fill="currentColor" viewBox="0 0 24 24"><path d="M8 3a2 2 0 0 0-2 2v4a2 2 0 0 1-2 2H3v2h1a2 2 0 0 1 2 2v4a2 2 0 0 0 2 2h2v-2H8v-5a2 2 0 0 0-2-2 2 2 0 0 0 2-2V5h2V3m6 0a2 2 0 0 1 2 2v4a2 2 0 0 0 2 2h1v2h-1a2 2 0 0 0-2 2v4a2 2 0 0 1-2 2h-2v-2h2v-5a2 2 0 0 1 2-2 2 2 0 0 1-2-2V5h-2V3z"/></svg>

<svg  viewBox="0 0 24 24" fill="currentColor"><path  d="M8,3A2,2 0 0,0 6,5V9A2,2 0 0,1 4,11H3V13H4A2,2 0 0,1 6,15V19A2,2 0 0,0 8,21H10V19H8V14A2,2 0 0,0 6,12A2,2 0 0,0 8,10V5H10V3M16,3A2,2 0 0,1 18,5V9A2,2 0 0,0 20,11H21V13H20A2,2 0 0,0 18,15V19A2,2 0 0,1 16,21H14V19H16V14A2,2 0 0,1 18,12A2,2 0 0,1 16,10V5H14V3H16Z"/></svg>
